svg/up-bordered.svg

<?xml version="1.0" encoding="UTF-8"?>
<svg xmlns="http://www.w3.org/2000/svg" xmlns:xlink="http://www.w3.org/1999/xlink" width="32" height="32" viewBox="0 0 32 32">
<path fill-rule="nonzero" fill="rgb(100%, 100%, 100%)" fill-opacity="1" d="M 15.5625 2 C 8.324219 2 2.457031 7.96875 2.457031 15.332031 C 2.457031 22.695312 8.324219 28.667969 15.5625 28.667969 C 22.800781 28.667969 28.667969 22.695312 28.667969 15.332031 C 28.667969 7.96875 22.800781 2 15.5625 2 "/>
<path fill-rule="nonzero" fill="rgb(0%, 0%, 0%)" fill-opacity="1" d="M 15.546875 3.019531 C 8.8125 3.019531 3.332031 8.496094 3.332031 15.234375 C 3.332031 21.972656 8.8125 27.453125 15.546875 27.453125 C 22.285156 27.453125 27.765625 21.972656 27.765625 15.234375 C 27.765625 8.5 22.285156 3.019531 15.546875 3.019531 M 21.109375 12.882812 C 21.03125 13.074219 20.84375 13.199219 20.636719 13.199219 L 19.113281 13.199219 C 18.976562 13.203125 18.847656 13.148438 18.753906 13.050781 L 16.566406 10.863281 L 16.566406 22.871094 C 16.566406 23.152344 16.339844 23.378906 16.058594 23.378906 L 15.039062 23.378906 C 14.90625 23.378906 14.777344 23.324219 14.679688 23.230469 C 14.585938 23.136719 14.53125 23.003906 14.53125 22.871094 L 14.53125 10.863281 L 12.34375 13.050781 C 12.25 13.148438 12.121094 13.199219 11.984375 13.199219 L 10.457031 13.199219 C 10.253906 13.199219 10.066406 13.074219 9.988281 12.882812 C 9.910156 12.691406 9.953125 12.472656 10.097656 12.328125 L 15.1875 7.238281 C 15.28125 7.140625 15.414062 7.085938 15.550781 7.085938 C 15.6875 7.085938 15.816406 7.140625 15.910156 7.238281 L 21 12.328125 C 21.148438 12.472656 21.195312 12.691406 21.109375 12.882812 "/>
</svg>

<svg role="img" viewBox="0 0 32 32" height="32" width="32" xmlns="http://www.w3.org/2000/svg"><path d="M15.563 2C8.324 2 2.457 7.969 2.457 15.332s5.867 13.336 13.106 13.336c7.238 0 13.105-5.973 13.105-13.336S22.801 2 15.563 2" fill="rgb(100%, 100%, 100%)"/><path d="M15.547 3.02c-6.735 0-12.215 5.476-12.215 12.214 0 6.739 5.48 12.22 12.215 12.22 6.738 0 12.219-5.481 12.219-12.22 0-6.734-5.48-12.214-12.22-12.214m5.563 9.863a.51.51 0 0 1-.472.316h-1.524a.492.492 0 0 1-.36-.148l-2.187-2.188v12.008a.508.508 0 0 1-.508.508H15.04a.507.507 0 0 1-.508-.508V10.863l-2.187 2.188a.499.499 0 0 1-.36.148h-1.527a.511.511 0 0 1-.36-.871l5.09-5.09a.503.503 0 0 1 .723 0l5.09 5.09a.497.497 0 0 1 .11.555"/></svg>
